static/assets/img/icons/theme/navigation/exchange.svg

<svg height="24" viewBox="0 0 24 24" width="24" xmlns="http://www.w3.org/2000/svg"><g fill="none" fill-rule="evenodd"><path d="m0 0h24v24h-24z" opacity="0"/><g fill="#000"><rect height="12" opacity=".3" rx="1" transform="matrix(0 -1 1 0 7 19)" width="2" x="12"/><path d="m9.79289322 3.79289322c.39052428-.39052429 1.02368928-.39052429 1.41421358 0s.3905243 1.02368927 0 1.41421356l-3.00000002 3c-.39052429.39052429-1.02368927.39052429-1.41421356 0l-3-3c-.39052429-.39052429-.39052429-1.02368927 0-1.41421356s1.02368927-.39052429 1.41421356 0l2.29289322 2.29289322z" fill-rule="nonzero" transform="matrix(0 1 -1 0 13.5 -1.5)"/><rect height="12" opacity=".3" rx="1" transform="matrix(0 -1 -1 0 29 29)" width="2" x="10" y="12"/><path d="m18.7928932 15.7928932c.3905243-.3905243 1.0236893-.3905243 1.4142136 0s.3905243 1.0236893 0 1.4142136l-3 3c-.3905243.3905243-1.0236893.3905243-1.4142136 0l-3-3c-.3905243-.3905243-.3905243-1.0236893 0-1.4142136s1.0236893-.3905243 1.4142136 0l2.2928932 2.2928932z" fill-rule="nonzero" transform="matrix(0 1 1 0 -1.5 1.5)"/></g></g></svg>

<svg width="24px" height="24px" viewBox="0 0 24 24" version="1.1" xmlns="http://www.w3.org/2000/svg" xmlns:xlink="http://www.w3.org/1999/xlink">
    <title>Icon For Exchange</title>
    <g stroke="none" stroke-width="1" fill="none" fill-rule="evenodd">
        <polygon points="0 0 24 0 24 24 0 24" opacity="0"></polygon>
        <rect fill="#000000" opacity="0.3" transform="translate(13.000000, 6.000000) rotate(-450.000000) translate(-13.000000, -6.000000) " x="12" y="8.8817842e-16" width="2" height="12" rx="1"></rect>
        <path d="M9.79289322,3.79289322 C10.1834175,3.40236893 10.8165825,3.40236893 11.2071068,3.79289322 C11.5976311,4.18341751 11.5976311,4.81658249 11.2071068,5.20710678 L8.20710678,8.20710678 C7.81658249,8.59763107 7.18341751,8.59763107 6.79289322,8.20710678 L3.79289322,5.20710678 C3.40236893,4.81658249 3.40236893,4.18341751 3.79289322,3.79289322 C4.18341751,3.40236893 4.81658249,3.40236893 5.20710678,3.79289322 L7.5,6.08578644 L9.79289322,3.79289322 Z" fill="#000000" fill-rule="nonzero" transform="translate(7.500000, 6.000000) rotate(-270.000000) translate(-7.500000, -6.000000) "></path>
        <rect fill="#000000" opacity="0.3" transform="translate(11.000000, 18.000000) scale(1, -1) rotate(90.000000) translate(-11.000000, -18.000000) " x="10" y="12" width="2" height="12" rx="1"></rect>
        <path d="M18.7928932,15.7928932 C19.1834175,15.4023689 19.8165825,15.4023689 20.2071068,15.7928932 C20.5976311,16.1834175 20.5976311,16.8165825 20.2071068,17.2071068 L17.2071068,20.2071068 C16.8165825,20.5976311 16.1834175,20.5976311 15.7928932,20.2071068 L12.7928932,17.2071068 C12.4023689,16.8165825 12.4023689,16.1834175 12.7928932,15.7928932 C13.1834175,15.4023689 13.8165825,15.4023689 14.2071068,15.7928932 L16.5,18.0857864 L18.7928932,15.7928932 Z" fill="#000000" fill-rule="nonzero" transform="translate(16.500000, 18.000000) scale(1, -1) rotate(270.000000) translate(-16.500000, -18.000000) "></path>
    </g>
</svg>
